X:1
T:At  the Foot of Yonder Mountain
M:3/4
L:1/8
K:G
 GA| BA G2 G2|E-D D2 D2| E2 G2 G2| B4 GA| BA G2 G2|E-D D2 D2| E2 G2 A2|\
 G6| d6|e-d d2 d2|A-G G2 GA|B-A G2 E2| G6| G4-G-A| B2 A2 GG|E-D A,2 DD|\
E-G G2 A2| G4||
